X:15010
T:Oh Susanna
R:March
C:Stephen Foster, 1847
O:USA
Z:Paul Hardy's Session Tunebook 2015 (see www.paulhardy.net). Creative Commons cc by-nc-sa licenced.
M:4/4
L:1/4
Q:1/4=220
K:G
G/2A/2|"G"Bd d>e|dB G>A|BB AG|"D7"A3G/2A/2|"G"Bd d>e|dB G>A|BB "D7"AA|"G"G3:|
"C"c2c2|ee2e|"G"dd BG|"D7"A3G/2A/2|"G"Bd d>e|dB G>A|BB "D7"AA|"G"G3|]

